icons/ppe_gloves.svg

<svg width="48" height="48" viewBox="0 0 48 48" fill="none" xmlns="http://www.w3.org/2000/svg">
<path fill-rule="evenodd" clip-rule="evenodd" d="M28 8.17071C28.3128 8.06015 28.6494 8 29 8C30.6569 8 32 9.34315 32 11V21.1492L33.0557 19.8296C34.0289 18.6131 35.7196 18.2418 37.113 18.9385C38.8905 19.8272 39.4868 22.0726 38.3844 23.7261L34.9261 28.9137C33.7298 30.7081 32.0717 32.0978 30.1674 32.9677L30.9965 42.917C31.0198 43.1956 30.9252 43.4713 30.7359 43.6771C30.5465 43.8829 30.2797 44 30 44H18C17.7203 44 17.4535 43.8829 17.2641 43.6771C17.0748 43.4713 16.9802 43.1956 17.0035 42.917L17.8105 33.2325C15.5493 32.0731 14 29.7185 14 27V13C14 11.3431 15.3431 10 17 10C17.3506 10 17.6872 10.0602 18 10.1707V9C18 7.34315 19.3431 6 21 6C21.3902 6 21.7631 6.07451 22.1051 6.21009C22.4518 4.93647 23.6165 4 25 4C26.6569 4 28 5.34315 28 7V8.17071ZM25 6C24.4477 6 24 6.44772 24 7V20H22V9C22 8.44772 21.5523 8 21 8C20.4477 8 20 8.44772 20 9V20H18V13C18 12.4477 17.5523 12 17 12C16.4477 12 16 12.4477 16 13V27C16 29.1335 17.3366 30.9572 19.2217 31.6748C19.6381 31.8333 19.8994 32.2483 19.8624 32.6924L19.0868 42H28.9132L28.1139 32.4087C28.0769 31.9639 28.3391 31.5484 28.7565 31.3904C30.5705 30.7038 32.1556 29.4638 33.262 27.8043L36.7203 22.6167C37.1554 21.9642 36.92 21.0781 36.2186 20.7273C35.6687 20.4524 35.0015 20.5989 34.6174 21.079L31.7809 24.6247C31.5156 24.9563 31.0697 25.0842 30.669 24.9436C30.2682 24.8031 30 24.4247 30 24V11C30 10.4477 29.5523 10 29 10C28.4477 10 28 10.4477 28 11V20H26V7C26 6.44772 25.5523 6 25 6Z" fill="black"/>
<path d="M10 14H12V16H10V14Z" fill="black"/>
<path d="M10 16V29.0002C10 31.7187 11.5493 34.0733 13.8105 35.2327L13.2465 42.0002H15.2535L15.8624 34.6926C15.8994 34.2485 15.6381 33.8335 15.2217 33.675C13.3366 32.9574 12 31.1337 12 29.0002V16H10Z" fill="black"/>
</svg>

<svg
  xmlns="http://www.w3.org/2000/svg"
  width="24"
  height="24"
  viewBox="0 0 24 24"
  fill="none"
  stroke="currentColor"
  stroke-width="2"
  stroke-linecap="round"
  stroke-linejoin="round"
>
  <path
    fill-rule="evenodd"
    d="M28 8.17A3 3 0 0 1 32 11v10.15l1.056-1.32a3.304 3.304 0 0 1 5.328 3.896l-3.458 5.188a11.4 11.4 0 0 1-4.759 4.054l.83 9.949A1 1 0 0 1 30 44H18a1 1 0 0 1-.997-1.083l.808-9.684A7 7 0 0 1 14 27V13a3 3 0 0 1 4-2.83V9a3 3 0 0 1 4.105-2.79A3.001 3.001 0 0 1 28 7zM25 6a1 1 0 0 0-1 1v13h-2V9a1 1 0 1 0-2 0v11h-2v-7a1 1 0 1 0-2 0v14a5 5 0 0 0 3.222 4.675 1 1 0 0 1 .64 1.017L19.087 42h9.826l-.8-9.591a1 1 0 0 1 .643-1.019 9.42 9.42 0 0 0 4.506-3.586l3.458-5.187a1.304 1.304 0 0 0-2.103-1.538l-2.836 3.546A1 1 0 0 1 30 24V11a1 1 0 1 0-2 0v9h-2V7a1 1 0 0 0-1-1"
    clip-rule="evenodd"
  />
  <path d="M10 14h2v2h-2z" />
  <path d="M10 16v13a7 7 0 0 0 3.81 6.233L13.247 42h2.008l.608-7.307a1 1 0 0 0-.64-1.018A5 5 0 0 1 12 29V16z" />
</svg>
